X:1
T:Title
%%score ( 1 2 ) { 3 | 4 }
L:1/8
Q:1/4=145
M:6/4
K:F
V:1 treble nm="Grand Piano, Soprano"
V:2 treble 
V:3 bass nm="Choir Pad, Lahore, William Sherwin"
V:4 bass 
V:1
 [Fc]4 [Fd]2 [Fc]4 [FB]2 | [FA]4 [EG]2 F6 | [EG]6 [FA]4 [GB]2 | [FA]12 | [Ac]4 [Bd]2 [Ac]4 [GB]2 | %5
w: By~William~Fiske~Sherwin,~1873 * * *|||||
 [FA]4 [EG]2 F6 | [FG]6 [EA]4 [EG]2 | F12 | [EG]4 [_E^F]2 [=EG]4 [Ec]2 | [Ec]4 [FA]2 [EG]6 | %10
w: |||||
 [Ec]6 [Fd]4 [F=B]2 | [Ec]12 | [Fc]4 [FA]2 [FB]4 [Fd]2 | z6 .c6 | [FA]6 [CF]4 [CG]2 | [CF]12 |] %16
w: ||||||
V:2
 x12 | x12 | x12 | x12 | x12 | x12 | x12 | x12 | x12 | x12 | x12 | x12 | x12 | %13
 [Fc]4 [FA]2 F4- [FB]2 | x12 | x12 |] %16
V:3
 A,4 B,2 A,4 D2 | C4 B,2 A,6 | C6 C4 C2 | C12 | F,4 F,2 F,4[K:treble] D2 | C4 B,2 A,6 | %6
 D6 C4[K:bass] B,2 | A,12 | G,4 A,2 G,4 G,2 | G,4[K:treble] C2 C6 | C6 =B,4 D2 | C6[K:bass] .B,6 | %12
 A,4 C2 D4 B,2 | A,4 C2 A,4 D2 | C6 A,4 B,2 | A,12 |] %16
V:4
 F,4 F,2 F,4 F,2 | F,4 C,2 D,6 | C,6 C,4 C,2 | F,12 | z6 z4 F,2 | F,4 C,2 D,6 | B,,6 C,4 C,2 | %7
 F,12 | C,4 C,2 C,4 C,2 | C,4 C,2 C,6 | G,6 G,4 G,2 | C,12 | F,4 F,2 F,4 F,2 | F,4 F,2 F,4 B,,2 | %14
 C,6 C,4 C,2 | F,12 |] %16

